X: 30574
T: One Big Happy Islands
R: jig
M: 6/8
K: Gmajor
B,|:D>ED GED|DED GFG|ABA AGE|A3 A>FG
ABA dBA|ABA dBA|GAG GED|G3 G3:|
e2e efe|dBA ABd|dBA ABd|B2^c B3|
e2e efe|def gab|gfe fed|e3 e>Bc|
d2e g2e|d2e g2g|a2b a2g|a3 a>fg|
aba d'ba|aba d'ba|g2a g2e|g2g g2g|ggg g3|[e12B,12]|

